X:1
T:[ID 1-139a]
T:[ID 1-139a]
T:Bezeichnung standardisiert: Menuett Menuet
T:Urheber unbekannt Datum in der hier transkribierten schriftlichen Quelle: 1767
C:Urheber unbekannt
C:Datum in der hier transkribierten schriftlichen Quelle: 1767
L:1/8
M:3/4
K:D
V:1 treble 
V:1
 D2 F2 A2 | d3 efg | a2 a2 fa | g2 eg f2 | A3 GFG | AGFE D2 | A2 g2 gf | f2 e4 :: A4 a2 | %9
 (ag)(gf) f2 | A4 g2 | (gf)(fe) e2 | B3 dcB | A2 Bc d2 | egfgac | d6 :| %16

